X: 82
T: Missa Inviolata / Agnus Dei
N: Derived from Rue1017e-Missa_Inviolata-Agnus.krn
C: Pierre de la Rue
%%abc-version 2.0
%%abcx-abcm2ps-target-version 5.9.1 (29 Sep 2008)
%%abc-creator hum2abc beta
%%abcx-conversion-date 2019/02/17 08:01:13
%%abc-edited-by Jesse Rodin
%%abc-edited-by Chris Gage 05-14-2013
%%abcx-initial-encoding-date 2013/07/25/
%%humdrum-veritas 3805541088
%%humdrum-veritas-data 2153956265
%%linebreak <none>
%%barnumbers 0
L: 1/4
M: 4/2
Q: 1/2=120
%%staves [1 2 3 4]
V: 1 clef=treble
V: 2 clef=treble
V: 3 clef=treble-8
V: 4 clef=bass
K: C
[V:1] c8 | 
[V:2] G8 | 
[V:3] c8 | 
[V:4] C,8 | 
[V:1] c4c4 | 
[V:2] G4A4- | 
[V:3] c4c4 | 
[V:4] C,4F,4- | 
[V:1] f6d2 | 
[V:2] A2F2F4 | 
[V:3] d8- | 
[V:4] F,2D,2D,4 | 
[V:1] d8 | 
[V:2] _B6A2 | 
[V:3] d8 | 
[V:4] G,6F,2 | 
[V:1] g6f2 | 
[V:2] G2F2E2D2 | 
[V:3] e8- | 
[V:4] E,2D,2C,4- | 
[V:1] e2d2c4 | 
[V:2] C2G3FED | 
[V:3] e8 | 
[V:4] C,4C3B, | 
[V:1] z8 | 
[V:2] C2B,2A,4 | 
[V:3] z4f4- | 
[V:4] A,2G,2F,2E,2 | 
[V:1] f6e2 | 
[V:2] A8 | 
[V:3] f4f4 | 
[V:4] D,8- | 
[V:1] d2c2BAd2- | 
[V:2] A4z4 | 
[V:3] f8 | 
[V:4] D,8 | 
[V:1] d2c2d2A2 | 
[V:2] A4G2F2 | 
[V:3] e4d2f2- | 
[V:4] z2A,2B,2D2- | 
[V:1] B2c2d2A2 | 
[V:2] D2A2G2c2- | 
[V:3] f2e2d2f2 | 
[V:4] DCA,2B,2A,2- | 
[V:1] c2d2e4 | 
[V:2] c2BAG4 | 
[V:3] edd4c2 | 
[V:4] A,2G,F,E,4 | 
[V:1] A2B4AG | 
[V:2] F3EF2G2- | 
[V:3] d8 | 
[V:4] D,8 | 
[V:1] A4G4 | 
[V:2] G2^F2G4- | 
[V:3] d4e4- | 
[V:4] D,4z4 | 
[V:1] z8 | 
[V:2] G8- | 
[V:3] e2dcd2c2 | 
[V:4] G,3A,B,2C2- | 
[V:1] z8 | 
[V:2] G4G4 | 
[V:3] e4d2B2 | 
[V:4] CB,G,A,B,2G,2 | 
[V:1] z8 | 
[V:2] z8 | 
[V:3] c2d2e3c | 
[V:4] A,2B,2C3A, | 
[V:1] z8 | 
[V:2] z8 | 
[V:3] d2e3cd2 | 
[V:4] B,2G,2A,2B,2 | 
[V:1] G3AB2c2- | 
[V:2] z8 | 
[V:3] e8 | 
[V:4] C3B,G,2A,2 | 
[V:1] c2d2e3c | 
[V:2] A4G2c2 | 
[V:3] z8 | 
[V:4] F,4E,4 | 
[V:1] d2B2c2d2 | 
[V:2] B2G2A2B2 | 
[V:3] z8 | 
[V:4] z8 | 
[V:1] e2g4f2- | 
[V:2] c3BG2A2- | 
[V:3] c4c4 | 
[V:4] C,3D,E,2F,2- | 
[V:1] f2e4d2 | 
[V:2] A2G2F2ED | 
[V:3] e4f4 | 
[V:4] F,2G,2A,2B,2 | 
[V:1] e3dB2c2 | 
[V:2] C4z2C2- | 
[V:3] e8 | 
[V:4] C3B,G,2A,2 | 
[V:1] B2G2A2GF | 
[V:2] CDE2F4 | 
[V:3] e4d4 | 
[V:4] E,2G,2F,4 | 
[V:1] E4z4 | 
[V:2] G2E2F2D2 | 
[V:3] c4d4 | 
[V:4] z2C4B,2 | 
[V:1] z8 | 
[V:2] F2E2A4 | 
[V:3] c4d4 | 
[V:4] A,G,F,E,F,4 | 
[V:1] z2e3dcA | 
[V:2] G8- | 
[V:3] e2g3fed | 
[V:4] E,4C,4 | 
[V:1] c2B4B2 | 
[V:2] G8 | 
[V:3] e2dcd2e2 | 
[V:4] z2G,2G,2G,2- | 
[V:1] B2d2e2c2 | 
[V:2] z2G4A2 | 
[V:3] dcd2c4 | 
[V:4] G,A,B,2C2A,2 | 
[V:1] g3fede2 | 
[V:2] B6AG | 
[V:3] z8 | 
[V:4] G,8 | 
[V:1] fedcB4 | 
[V:2] A4G3A | 
[V:3] z4z2d2- | 
[V:4] F,4G,4 | 
[V:1] z4z2B2 | 
[V:2] B2A4G2 | 
[V:3] d2c2d2B2 | 
[V:4] z4z2G,2- | 
[V:1] c2A2B2G2 | 
[V:2] A3GEDG2- | 
[V:3] A4z4 | 
[V:4] G,F,F,2G,2E,2 | 
[V:1] A4G4 | 
[V:2] G2F2G2E2 | 
[V:3] z2d4c2 | 
[V:4] D,4z4 | 
[V:1] z2G2A2A2 | 
[V:2] D2B2c4 | 
[V:3] d2B2A4 | 
[V:4] z2G,4F,2 | 
[V:1] Bcdef4 | 
[V:2] B2G4F2 | 
[V:3] G4d4 | 
[V:4] G,2E,2D,4 | 
[V:1] e2c2d3c | 
[V:2] G8 | 
[V:3] e4d2B2 | 
[V:4] C,4G,4 | 
[V:1] ABcB/c/d2G2 | 
[V:2] z4z2G2 | 
[V:3] c4B4 | 
[V:4] A,4G,2E,2 | 
[V:1] A4G4 | 
[V:2] F2D2E2G2- | 
[V:3] z4z2e2- | 
[V:4] F,4E,4 | 
[V:1] z8 | 
[V:2] G2F2G2E2 | 
[V:3] e2d2e2c2 | 
[V:4] z4z2A,2- | 
[V:1] z2B2c3d | 
[V:2] D4C4- | 
[V:3] B4A4 | 
[V:4] A,2G,2A,2F,2 | 
[V:1] e4A3F | 
[V:2] C4D4 | 
[V:3] z2e2f3e | 
[V:4] E,4D,4- | 
[V:1] _B2A4G2- | 
[V:2] z8 | 
[V:3] d2c2B2AG | 
[V:4] D,4z4 | 
[V:1] G2F2G2d2- | 
[V:2] z4z2D2- | 
[V:3] A4G3A | 
[V:4] z2A,2B,3A, | 
[V:1] dcA2G2c2- | 
[V:2] DEF2G2A2 | 
[V:3] B2c3de2 | 
[V:4] G,2F,2E,2D,C, | 
[V:1] c2B2c4- | 
[V:2] G2E2EDCB, | 
[V:3] d4c4- | 
[V:4] G,4C,4- | 
[V:1] c8 ||  
[V:2] A,4G,4 ||  
[V:3] c8 ||  
[V:4] C,8 ||  
[V:1]  [K:C] [K:clef=treble][M:4/2]c8 | 
[V:2]  [K:C] [K:clef=treble][M:4/2]G8 | 
[V:3]  [K:C] [K:clef=treble-8][M:4/2]e8- | 
[V:4]  [K:C] [K:clef=bass][M:4/2]C,8 | 
[V:1] c4B4- | 
[V:2] G4G4- | 
[V:3] e4e4 | 
[V:4] C,4G,4- | 
[V:1] B2AGB2A2- | 
[V:2] G4F3G | 
[V:3] d8 | 
[V:4] G,2F,E,D,4 | 
[V:1] A2G4^F2 | 
[V:2] A2B2c4 | 
[V:3] c8 | 
[V:4] F,2G,2A,4 | 
[V:1] G8 | 
[V:2] B8 | 
[V:3] z4e4- | 
[V:4] G,8 | 
[V:1] z8 | 
[V:2] z4c4 | 
[V:3] e4e4 | 
[V:4] z4C,4 | 
[V:1] z8 | 
[V:2] B3GB2A2- | 
[V:3] d8 | 
[V:4] G,4D,4 | 
[V:1] z4c4 | 
[V:2] A2G4^F2 | 
[V:3] c8 | 
[V:4] F,2G,2A,4 | 
[V:1] B6AG | 
[V:2] G6FE | 
[V:3] z4e4 | 
[V:4] G,8- | 
[V:1] B2c2d4 | 
[V:2] G2A2B4 | 
[V:3] d4d4 | 
[V:4] G,8 | 
[V:1] e4c3d | 
[V:2] c3BA2G2- | 
[V:3] c8- | 
[V:4] C,8 | 
[V:1] e4f4 | 
[V:2] G2A4GF | 
[V:3] c8- | 
[V:4] z4F,4 | 
[V:1] e2e4dc | 
[V:2] G6FE | 
[V:3] c8 | 
[V:4] C,3D,E,2F,2 | 
[V:1] B8 | 
[V:2] D4G4 | 
[V:3] z4d4- | 
[V:4] G,6F,E, | 
[V:1] z2G2A2B2- | 
[V:2] F2D3CB,A, | 
[V:3] d4d4 | 
[V:4] D,2G,2F,2G,2- | 
[V:1] B2c4d2 | 
[V:2] G,2A,4B,2 | 
[V:3] e4f4 | 
[V:4] G,2F,E,D,4 | 
[V:1] e4z4 | 
[V:2] C4z4 | 
[V:3] e4A2B2- | 
[V:4] C,6D,2 | 
[V:1] z8 | 
[V:2] z4A4 | 
[V:3] B2c4d2 | 
[V:4] E,4F,4 | 
[V:1] z2E2G2A2 | 
[V:2] G2G4FE | 
[V:3] e8 | 
[V:4] E,6F,2 | 
[V:1] B2c2dcBA | 
[V:2] F2E4D2 | 
[V:3] z8 | 
[V:4] G,2A,2F,4 | 
[V:1] G4z4 | 
[V:2] E4z4 | 
[V:3] z2B2c2d2 | 
[V:4] E,2G,2F,4 | 
[V:1] z2B2c2d2 | 
[V:2] z4A4 | 
[V:3] e2g2f4 | 
[V:4] E,4z4 | 
[V:1] e3dB2c2- | 
[V:2] G2G3FED | 
[V:3] e8- | 
[V:4] E,3F,G,2A,2- | 
[V:1] cBA4G2 | 
[V:2] C3A,B,2G,2 | 
[V:3] e8 | 
[V:4] A,2G,F,E,4 | 
[V:1] A8 | 
[V:2] D2CB,A,4- | 
[V:3] f8- | 
[V:4] D,4z2F,2- | 
[V:1] z8 | 
[V:2] A,4A4- | 
[V:3] f8 | 
[V:4] F,2D,2F,3G, | 
[V:1] z2f4d2 | 
[V:2] A4A4 | 
[V:3] f4f4- | 
[V:4] A,2D,2D,4 | 
[V:1] f3ec2d2 | 
[V:2] A8 | 
[V:3] f4f4 | 
[V:4] z2D,2A,2B,2 | 
[V:1] e3dc2B2- | 
[V:2] G4z4 | 
[V:3] e8 | 
[V:4] C3B,A,2G,2- | 
[V:1] Bcd2e4 | 
[V:2] G6FG | 
[V:3] d4c3B/c/ | 
[V:4] G,2F,2E,4 | 
[V:1] f3ed4 | 
[V:2] F4G4 | 
[V:3] dcBAB4 | 
[V:4] D,4G,4 | 
[V:1] z2e2c2e2- | 
[V:2] E3FG2A2 | 
[V:3] c8 | 
[V:4] C,4z2C2- | 
[V:1] efgefedc | 
[V:2] G2c2B2A2 | 
[V:3] z8 | 
[V:4] CDECDCB,A, | 
[V:1] d2c3de2 | 
[V:2] G2A3GEF | 
[V:3] z2e3fge | 
[V:4] B,2A,2C4 | 
[V:1] d2c4B2 | 
[V:2] G8 | 
[V:3] fedcd4 | 
[V:4] B,2C2G,4 | 
[V:1] c2e2f2d2 | 
[V:2] z2G2F2G2 | 
[V:3] c4z4 | 
[V:4] z2C2D2B,2 | 
[V:1] e2dcB3A | 
[V:2] E2F2G4 | 
[V:3] z4z2e2 | 
[V:4] C2B,A,G,4 | 
[V:1] A2d2B2c2 | 
[V:2] A3FG2A2- | 
[V:3] f2d2e2dc | 
[V:4] F,4z4 | 
[V:1] d3Bc2d2 | 
[V:2] A2G2A4 | 
[V:3] B4A2d2 | 
[V:4] G,4F,4 | 
[V:1] e4f3e | 
[V:2] z2G2F3D | 
[V:3] B2c2d4 | 
[V:4] E,4D,4 | 
[V:1] c2d4cB | 
[V:2] E2F2D4- | 
[V:3] z2d2f4 | 
[V:4] z4z4 | 
[V:1] A4G4 | 
[V:2] D4B,4 | 
[V:3] f4e3d | 
[V:4] D,4E,4 | 
[V:1] z2G2B3c | 
[V:2] E3DB,2E2 | 
[V:3] cBe4dc | 
[V:4] E,4G,4- | 
[V:1] d4c4 | 
[V:2] D2G4^F2 | 
[V:3] B4z4 | 
[V:4] G,4A,4 | 
[V:1] B2B4AG | 
[V:2] G4z4 | 
[V:3] B4d4 | 
[V:4] G,6F,E, | 
[V:1] A4z2G2 | 
[V:2] z8 | 
[V:3] d4e4 | 
[V:4] F,4E,4 | 
[V:1] B3cd2e2- | 
[V:2] z8 | 
[V:3] e2d4cB | 
[V:4] z4z2G,2 | 
[V:1] e2c2d2e2- | 
[V:2] z8 | 
[V:3] c4B4 | 
[V:4] A,4G,4 | 
[V:1] e2dcB3c | 
[V:2] z4z2G2- | 
[V:3] z2d2e4 | 
[V:4] E,2F,2G,4- | 
[V:1] dBd4c2- | 
[V:2] G2FED2G2 | 
[V:3] d4B2c2 | 
[V:4] G,4z2E,2 | 
[V:1] c2B2c2f2 | 
[V:2] F2D2A2c2- | 
[V:3] d4c4 | 
[V:4] F,2G,2A,2F,2 | 
[V:1] e2d2g3f | 
[V:2] cBGABAGF | 
[V:3] z4z4 | 
[V:4] C2B,2G,2B,2- | 
[V:1] d2cded/e/f2 | 
[V:2] G2ABcB/c/dc | 
[V:3] z2f2e2d2 | 
[V:4] B,2A,4D,2 | 
[V:1] e2dcd2c2- | 
[V:2] BAG4F2 | 
[V:3] g3efedc | 
[V:4] E,F,G,F,/G,/A,4 | 
[V:1] c2B2c4- | 
[V:2] G4z2G2 | 
[V:3] d4c4- | 
[V:4] G,4C,4- | 
[V:1] c8- | 
[V:2] E2F2G4 | 
[V:3] c8- | 
[V:4] C,8- | 
[V:1] c8 |]  
[V:2] G8 |]  
[V:3] c8 |]  
[V:4] C,8 |]  



